X: 1
T: Stool of Repentance
C: Trad
R: Jig
M: 6/8
L: 1/8
K: Amaj
Z: ABC transcription by Verge Roller
r: 32
|: e | "A" a2 e c2 e | "A" agf edc | "Bm" aff f2 e | "D" fag "E7" f2 e |
"A" a2 e c2 e | "A" agf edc | "D" d2 e f2 e | "E7" fac B2 :|
|: A | "A" cAA eAA | "A" cAc edc | "Bm" dBB fBB | "D" dBd "E7" fed |
"A" cAA eAA| "A" cAc edc | "D" d2 e f2 e | "E7" fac B2 :|
